X:1
T:Angels from the realm of glory
T:Angels from the realm of glory
L:1/8
M:4/4
K:G
V:1 alto nm="Viola" snm="Vla."
V:1
 vA3 A F2 D2 | B3 A G2 E2 | c2 B2 A2 G2 | G2 F2 G2 z2 | vD2 B,2 G2 D2 | B3 A G2 D2 | E2 E2 D2 G2 | %7
 D2 C2 B,4 | uD2 B,2 G2 D2 | B3 A G2 F2 | G2 F2 E2 (FG) | F2 E2 D4 | vA3 A F2 D2 | A3 A G2 E2 | %14
 c2 B2 A2 G2 | G2 F2 vG4 |] %16

